img/icons/marker6DomKult.svg

<?xml version="1.0" encoding="iso-8859-1"?>
<!-- Generator: Adobe Illustrator 19.0.0, SVG Export Plug-In . SVG Version: 6.00 Build 0)  -->
<svg version="1.1" id="Capa_1" xmlns="http://www.w3.org/2000/svg" xmlns:xlink="http://www.w3.org/1999/xlink" x="0px" y="0px"
	 viewBox="0 0 480.001 480.001" style="enable-background:new 0 0 480.001 480.001;" xml:space="preserve">
<g>
	<g>
		<path d="M328.584,137.508l-5.2-1.304c-25.094-6.267-51.415,3.953-65.704,25.512c-2.333,3.752-1.184,8.685,2.568,11.018
			c3.598,2.238,8.316,1.282,10.76-2.178c10.554-15.894,29.964-23.434,48.48-18.832l5.208,1.304c4.293,1.043,8.619-1.592,9.663-5.885
			C335.391,142.893,332.819,138.601,328.584,137.508z"/>
	</g>
</g>
<g>
	<g>
		<path d="M412.221,229.736c-2.023-0.673-4.23-0.51-6.133,0.451h0.024c-36.956,18.472-80.452,18.472-117.408,0
			c-3.943-1.993-8.756-0.412-10.749,3.531c-0.962,1.902-1.124,4.11-0.451,6.133l7.64,23.008
			c11.293,34.383,48.321,53.101,82.704,41.808c19.789-6.5,35.309-22.02,41.808-41.808l7.632-23.008
			C418.682,235.659,416.413,231.131,412.221,229.736z M394.48,257.828c-8.521,25.997-36.503,40.164-62.501,31.643
			c-14.983-4.911-26.733-16.661-31.643-31.643l-2.056-6.2c31.792,11.2,66.456,11.2,98.248,0L394.48,257.828z"/>
	</g>
</g>
<g>
	<g>
		<path d="M447.771,165.01c-0.082-0.132-0.169-0.262-0.259-0.39c-14.3-21.536-40.605-31.743-65.688-25.488l-5.216,1.312
			c-4.21,1.342-6.534,5.843-5.192,10.052c1.225,3.841,5.116,6.17,9.08,5.436l5.224-1.304c18.511-4.597,37.914,2.942,48.464,18.832
			c2.333,3.752,7.267,4.902,11.018,2.568C448.954,173.695,450.104,168.762,447.771,165.01z"/>
	</g>
</g>
<g>
	<g>
		<path d="M474.536,64.66c-82.531-27.456-171.733-27.456-254.264,0c-3.259,1.093-5.456,4.146-5.456,7.584v59.584
			c-67.823,14.924-138.424,11.167-204.28-10.872c-4.19-1.401-8.723,0.861-10.123,5.051C0.14,126.824,0,127.679,0,128.54v117.448
			c-0.001,64.852,27.615,126.635,75.936,169.888c28.738,25.705,71.861,26.826,101.896,2.648l2.448-1.968
			c33.037-26.464,57.949-61.701,71.88-101.672c10.829,16.629,23.805,31.757,38.592,44.992
			c28.736,25.704,71.856,26.825,101.888,2.648l2.448-1.968c53.857-43.144,85.115-108.481,84.912-177.488V72.244
			C479.999,68.804,477.798,65.75,474.536,64.66z M170.248,404.1l-2.4,1.968c-23.954,19.283-58.349,18.379-81.256-2.136
			C41.668,363.721,15.995,306.28,16,245.988V139.492c64.473,19.634,132.861,22.661,198.816,8.8v41.728
			c0,4.677,0.147,9.355,0.44,14.032c0.096,1.552,0.304,3.088,0.432,4.64c0.256,3.104,0.496,6.216,0.88,9.312
			c0.24,1.88,0.584,3.736,0.864,5.6c0.416,2.752,0.8,5.512,1.312,8.248c0.368,1.984,0.856,3.952,1.28,5.928
			c0.56,2.592,1.08,5.192,1.728,7.76c0.52,2.048,1.144,4.072,1.712,6.104c0.696,2.464,1.36,4.936,2.136,7.376
			c0.656,2.064,1.408,4.096,2.12,6.136c0.8,2.4,1.64,4.76,2.552,7.112c0.8,2.048,1.672,4.056,2.52,6.072
			c0.968,2.304,1.912,4.608,2.952,6.872c0.928,2.024,1.944,4,2.936,6.008c0.856,1.728,1.6,3.488,2.536,5.2
			C229.449,338.873,204.62,376.546,170.248,404.1z M464,183.068c0.183,64.159-28.873,124.906-78.936,165.032l-2.448,1.968
			c-23.944,19.259-58.31,18.355-81.208-2.136c-17.988-16.09-33.077-35.151-44.608-56.352c-12.723-23.332-20.972-48.837-24.32-75.2
			c-1.107-8.757-1.662-17.574-1.664-26.4V78.052c75.878-23.984,157.306-23.984,233.184,0V183.068z"/>
	</g>
</g>
<g>
	<g>
		<path d="M96.336,205.26c-3.685-2.443-8.653-1.437-11.096,2.248l-3.472,5.256C72.501,226.791,56.812,235.229,40,235.228
			c-4.418,0-8,3.582-8,8s3.582,8,8,8c22.176,0.007,42.874-11.117,55.104-29.616l3.48-5.256
			C101.027,212.671,100.021,207.703,96.336,205.26z"/>
	</g>
</g>
<g>
	<g>
		<path d="M179.632,323.204h-0.04c-30.349-20.44-70.059-20.44-100.408,0c-12.835,8.625-16.248,26.022-7.623,38.857
			c5.182,7.712,13.852,12.35,23.143,12.383c4.326-0.002,8.592-1.016,12.456-2.96c14.001-6.984,30.471-6.984,44.472,0
			c13.777,6.965,30.592,1.444,37.557-12.333C195.595,346.48,191.485,331.02,179.632,323.204z M173.992,353.132
			c-3.318,4.994-9.836,6.733-15.2,4.056c-18.525-9.252-40.323-9.252-58.848,0c-5.363,2.688-11.889,0.947-15.2-4.056
			c-3.675-5.506-2.196-12.948,3.304-16.632c24.965-16.81,57.627-16.81,82.592,0C176.157,340.168,177.657,347.613,173.992,353.132z"
			/>
	</g>
</g>
<g>
	<g>
		<path d="M218.904,277.108L203.28,240.66l-0.08-0.136c-1.116-3.164-4.101-5.284-7.456-5.296
			c-16.81,0.003-32.498-8.436-41.76-22.464l-3.488-5.256c-2.443-3.683-7.409-4.687-11.092-2.244
			c-3.683,2.443-4.687,7.409-2.244,11.092l3.488,5.256c10.059,15.157,25.932,25.486,43.864,28.544l-11.56,26.952
			c-5.442,12.689,0.433,27.388,13.122,32.83c12.689,5.442,27.388-0.433,32.83-13.122C221.603,290.524,221.603,283.4,218.904,277.108
			z M203.44,291.932c-2.967,4.147-8.734,5.103-12.88,2.136c-0.824-0.59-1.546-1.311-2.136-2.136c-1.702-2.509-2.004-5.714-0.8-8.496
			l8.272-19.304l8.272,19.304C205.398,286.206,205.123,289.412,203.44,291.932z"/>
	</g>
</g>
<g>
</g>
<g>
</g>
<g>
</g>
<g>
</g>
<g>
</g>
<g>
</g>
<g>
</g>
<g>
</g>
<g>
</g>
<g>
</g>
<g>
</g>
<g>
</g>
<g>
</g>
<g>
</g>
<g>
</g>
</svg>

<?xml version="1.0" encoding="UTF-8" standalone="no"?>
<!DOCTYPE svg PUBLIC "-//W3C//DTD SVG 1.1//EN" "http://www.w3.org/Graphics/SVG/1.1/DTD/svg11.dtd">
<svg width="100%" height="100%" viewBox="0 0 481 392" version="1.1" xmlns="http://www.w3.org/2000/svg" xmlns:xlink="http://www.w3.org/1999/xlink" xml:space="preserve" xmlns:serif="http://www.serif.com/" style="fill-rule:evenodd;clip-rule:evenodd;stroke-linejoin:round;stroke-miterlimit:2;">
    <g transform="matrix(1,0,0,1,-0.000999973,-44.069)">
        <g transform="matrix(1,0,0,1,-734.689,-305.886)">
            <path d="M742.533,436.995L741.42,549.835L755.082,627.455L782.272,673.468L821.04,720.853L862.87,736.414L897.354,728.868L926.267,706.38L951.967,672.113L972.314,641.059L986.235,610.004L1013.01,639.988L1042.99,665.688L1061.19,677.467L1089.04,679.609L1131.87,657.121L1157.57,634.633L1177.92,600.366L1196.12,557.532L1206.83,507.203L1208.97,460.085L1211.11,424.747L1205.76,380.842L1184.34,370.134L1145.79,363.709L1102.96,356.213L1070.83,356.213L1029.07,360.496L981.951,369.063L962.676,376.559L960.534,414.039L960.534,440.81L938.046,449.377L844.883,455.802L788.128,448.306L742.533,436.995Z" style="fill:rgb(163,205,255);"/>
            <path d="M960.534,440.81L960.55,527.241L986.235,610.004L1013.01,639.988L1042.99,665.688L1061.19,677.467L1089.04,679.609L1131.87,657.121L1157.57,634.633L1177.92,600.366L1196.12,557.532L1206.83,507.203L1208.97,460.085L1211.11,424.747L1205.76,380.842L1184.34,370.134L1145.79,363.709L1102.96,356.213L1070.83,356.213L1029.07,360.496L981.951,369.063L962.676,376.559L960.534,414.039L960.534,440.81Z" style="fill:rgb(255,213,163);"/>
            <g transform="matrix(1,0,0,1,734.69,305.887)">
                <g id="marker6DomKult">
                    <g>
                        <g>
                            <g>
                                <g>
                                    <path d="M328.584,137.508L323.384,136.204C298.29,129.937 271.969,140.157 257.68,161.716C255.347,165.468 256.496,170.401 260.248,172.734C263.846,174.972 268.564,174.016 271.008,170.556C281.562,154.662 300.972,147.122 319.488,151.724L324.696,153.028C328.989,154.071 333.315,151.436 334.359,147.143C335.391,142.893 332.819,138.601 328.584,137.508Z" style="fill-rule:nonzero;"/>
                                </g>
                            </g>
                            <g>
                                <g>
                                    <path d="M412.221,229.736C410.198,229.063 407.991,229.226 406.088,230.187L406.112,230.187C369.156,248.659 325.66,248.659 288.704,230.187C284.761,228.194 279.948,229.775 277.955,233.718C276.993,235.62 276.831,237.828 277.504,239.851L285.144,262.859C296.437,297.242 333.465,315.96 367.848,304.667C387.637,298.167 403.157,282.647 409.656,262.859L417.288,239.851C418.682,235.659 416.413,231.131 412.221,229.736ZM394.48,257.828C385.959,283.825 357.977,297.992 331.979,289.471C316.996,284.56 305.246,272.81 300.336,257.828L298.28,251.628C330.072,262.828 364.736,262.828 396.528,251.628L394.48,257.828Z" style="fill-rule:nonzero;"/>
                                </g>
                            </g>
                            <g>
                                <g>
                                    <path d="M447.771,165.01C447.689,164.878 447.602,164.748 447.512,164.62C433.212,143.084 406.907,132.877 381.824,139.132L376.608,140.444C372.398,141.786 370.074,146.287 371.416,150.496C372.641,154.337 376.532,156.666 380.496,155.932L385.72,154.628C404.231,150.031 423.634,157.57 434.184,173.46C436.517,177.212 441.451,178.362 445.202,176.028C448.954,173.695 450.104,168.762 447.771,165.01Z" style="fill-rule:nonzero;"/>
                                </g>
                            </g>
                            <g>
                                <g>
                                    <path d="M474.536,64.66C392.005,37.204 302.803,37.204 220.272,64.66C217.013,65.753 214.816,68.806 214.816,72.244L214.816,131.828C146.993,146.752 76.392,142.995 10.536,120.956C6.346,119.555 1.813,121.817 0.413,126.007C0.14,126.824 0,127.679 0,128.54L0,245.988C-0.001,310.84 27.615,372.623 75.936,415.876C104.674,441.581 147.797,442.702 177.832,418.524L180.28,416.556C213.317,390.092 238.229,354.855 252.16,314.884C262.989,331.513 275.965,346.641 290.752,359.876C319.488,385.58 362.608,386.701 392.64,362.524L395.088,360.556C448.945,317.412 480.203,252.075 480,183.068L480,72.244C479.999,68.804 477.798,65.75 474.536,64.66ZM170.248,404.1L167.848,406.068C143.894,425.351 109.499,424.447 86.592,403.932C41.668,363.721 15.995,306.28 16,245.988L16,139.492C80.473,159.126 148.861,162.153 214.816,148.292L214.816,190.02C214.816,194.697 214.963,199.375 215.256,204.052C215.352,205.604 215.56,207.14 215.688,208.692C215.944,211.796 216.184,214.908 216.568,218.004C216.808,219.884 217.152,221.74 217.432,223.604C217.848,226.356 218.232,229.116 218.744,231.852C219.112,233.836 219.6,235.804 220.024,237.78C220.584,240.372 221.104,242.972 221.752,245.54C222.272,247.588 222.896,249.612 223.464,251.644C224.16,254.108 224.824,256.58 225.6,259.02C226.256,261.084 227.008,263.116 227.72,265.156C228.52,267.556 229.36,269.916 230.272,272.268C231.072,274.316 231.944,276.324 232.792,278.34C233.76,280.644 234.704,282.948 235.744,285.212C236.672,287.236 237.688,289.212 238.68,291.22C239.536,292.948 240.28,294.708 241.216,296.42C229.449,338.873 204.62,376.546 170.248,404.1ZM464,183.068C464.183,247.227 435.127,307.974 385.064,348.1L382.616,350.068C358.672,369.327 324.306,368.423 301.408,347.932C283.42,331.842 268.331,312.781 256.8,291.58C244.077,268.248 235.828,242.743 232.48,216.38C231.373,207.623 230.818,198.806 230.816,189.98L230.816,78.052C306.694,54.068 388.122,54.068 464,78.052L464,183.068Z" style="fill-rule:nonzero;"/>
                                </g>
                            </g>
                            <g>
                                <g>
                                    <path d="M96.336,205.26C92.651,202.817 87.683,203.823 85.24,207.508L81.768,212.764C72.501,226.791 56.812,235.229 40,235.228C35.582,235.228 32,238.81 32,243.228C32,247.646 35.582,251.228 40,251.228C62.176,251.235 82.874,240.111 95.104,221.612L98.584,216.356C101.027,212.671 100.021,207.703 96.336,205.26Z" style="fill-rule:nonzero;"/>
                                </g>
                            </g>
                            <g>
                                <g>
                                    <path d="M179.632,323.204L179.592,323.204C149.243,302.764 109.533,302.764 79.184,323.204C66.349,331.829 62.936,349.226 71.561,362.061C76.743,369.773 85.413,374.411 94.704,374.444C99.03,374.442 103.296,373.428 107.16,371.484C121.161,364.5 137.631,364.5 151.632,371.484C165.409,378.449 182.224,372.928 189.189,359.151C195.595,346.48 191.485,331.02 179.632,323.204ZM173.992,353.132C170.674,358.126 164.156,359.865 158.792,357.188C140.267,347.936 118.469,347.936 99.944,357.188C94.581,359.876 88.055,358.135 84.744,353.132C81.069,347.626 82.548,340.184 88.048,336.5C113.013,319.69 145.675,319.69 170.64,336.5C176.157,340.168 177.657,347.613 173.992,353.132Z" style="fill-rule:nonzero;"/>
                                </g>
                            </g>
                            <g>
                                <g>
                                    <path d="M218.904,277.108L203.28,240.66L203.2,240.524C202.084,237.36 199.099,235.24 195.744,235.228C178.934,235.231 163.246,226.792 153.984,212.764L150.496,207.508C148.053,203.825 143.087,202.821 139.404,205.264C135.721,207.707 134.717,212.673 137.16,216.356L140.648,221.612C150.707,236.769 166.58,247.098 184.512,250.156L172.952,277.108C167.51,289.797 173.385,304.496 186.074,309.938C198.763,315.38 213.462,309.505 218.904,296.816C221.603,290.524 221.603,283.4 218.904,277.108ZM203.44,291.932C200.473,296.079 194.706,297.035 190.56,294.068C189.736,293.478 189.014,292.757 188.424,291.932C186.722,289.423 186.42,286.218 187.624,283.436L195.896,264.132L204.168,283.436C205.398,286.206 205.123,289.412 203.44,291.932Z" style="fill-rule:nonzero;"/>
                                </g>
                            </g>
                        </g>
                    </g>
                </g>
            </g>
        </g>
    </g>
</svg>
